X:1
T:Rimsky-Korsakov Harmonic Exercises 27
T:Rimsky-Korsakov Harmonic Exercises 27
T:Realizations by S. Shchetnikov
T:"Practical Manual of Harmony" (1885)
C:Realizations by S. Shchetnikov
%%score { ( 1 2 ) | ( 3 4 ) }
L:1/8
Q:1/2=50
M:4/4
K:C
V:1 treble nm="Piano" snm="Pno."
V:2 treble 
V:3 bass 
V:4 bass 
V:1
"""^Example by Rimsky-Korsakov (""^passing tones""^,""^suspensions""^):""_C:""^auxiliary tones""^," (G4"" A4 | %1
"""" G8- |"" G4"""_C:""_G:""_{" c4- | c4"""_G:""_a:""_{" B4 |"""" d4"""" e4 |"""" e8- | %6
"" e4"""_a:""_C:""_{" d4 | d8 |"_C:" d8- |"""""_C:""_e:""_{" d6 c2 |"""" B8- | %11
"""""_e:""_a:""_{" B8 |"""""_a:""_d:""_{" A8- |"" A4"""""_d:""_C:""_{" d4- | %14
 d2[Q:1/2=42]"^.7" c2-[Q:1/2=38]"^.3" c2[Q:1/2=34]"^.6" B2 | %15
[Q:1/2=31]"^.2" !breath!!fermata!c8)[Q:1/2=25] |][K:Eb][M:3/2][Q:1/2=80] z12 | z12 | z12 | z12 | %20
 z12 | z12 | z12 | z12 |]"""^Realisation 27.1"[Q:1/2=60]"_E♭:" (e4-"" e4"" d4 |"" e4"""" B8- | %26
"""""_E♭:""_A♭:""_{" B12 | A6 B2"""_{""_A♭:""_f:" c4 |"""_f:" =d4"" =e4"""_f:""_A♭:""_{" f4 | %29
 e4 _d4"""_{""_A♭:""_E♭:" c4 |"""" B8"" A4- | %31
""[Q:1/2=60] !fermata!A4[Q:1/2=41] G2[Q:1/2=35] F2[Q:1/2=29]"^.6" !fermata!G4) |] %32
V:2
 (E4 F4 | F8- | F4"" E2"" ^F2 |"""" G8 | A4- A2 ^G2 | A8- |"" A8- |"" A4"" G4- |"" G4"" F4 | %9
"" E8- | E4 ^D4 |"""" E8 |"" E4 =G4- | G4"" F4 |"""" E4"""" F4- |"" F4)"""^.3" !fermata!E4 |] %16
[K:Eb][M:3/2] x12 | x12 | x12 | x12 | x12 | x12 | x12 | x12 |] (G4 F8 | E8 A4- | A4"" G2 F2"" G4 | %27
"""""" A12 | B8"" A4 |"""" B8"" A4- | A4 G4 F4 | E12) |] %32
V:3
 C8- | C4 B,4 | C8 | D8- | D8- | D4 C4 | A,4 D2 C2 | B,8 | G,8 | G,4 ^F,4- | F,4 A,4- | A,4 ^G,4 | %12
 A,4 E4 | D4 A,4 | G,8- | G,8 |][K:Eb][M:3/2]"^Exercise 27.1" E,4 B,4 A,4- | A,4 G,4 F,4 | %18
 E,8 _D,4- | D,4 C,4 A,,4- | A,,4 G,,4 F,,4 | G,,8 A,,4 | B,,12 | E,12 |] (B,12- | B,8 D4 | E12- | %27
 E12 | F4 C8 | E12 | E8 D4 | B,12) |] %32
V:4
 (C,4 F,4 | D,8 | C,6 A,,2 | G,,8- | G,,2 F,,2 E,,4 | A,,6 G,,2 | F,,8 | G,,8 | B,,8 | C,4 A,,4 | %10
 B,,8 | E,6 D,2 | C,4 ^C,4 | D,6 F,,2 | G,,8 | !fermata!C,8) |][K:Eb][M:3/2] x12 | x12 | x12 | %19
 x12 | x12 | x12 | x12 | x12 |] (E,4 B,4 A,4- | A,4 G,4 F,4 | E,8 _D,4- | D,4 C,4 A,,4- | %28
 A,,4 G,,4 F,,4 | G,,8 A,,4 | B,,12 | !fermata!E,12) |] %32

